libs/ui/packages/crypto-icons/src/svg/ASTR.svg

<svg width="24" height="24" stroke-miterlimit="10" version="1.1" viewBox="0 0 24 24" xml:space="preserve" xmlns="http://www.w3.org/2000/svg" xmlns:xlink="http://www.w3.org/1999/xlink">
<path d="M20.7063 11.361C20.3795 6.55101 16.216 2.9182 11.4074 3.24494C9.01208 3.40816 6.90851 4.52396 5.44038 6.19547L5.43602 6.19256C5.42554 6.20595 5.41652 6.21933 5.40751 6.23271C3.94955 7.91469 3.12907 10.1495 3.292 12.5454C3.30713 12.7742 3.3339 12.9982 3.36678 13.2205C3.36678 13.2313 3.36969 13.24 3.37114 13.2504C3.39354 13.3968 3.41915 13.5434 3.44737 13.6869C3.47412 13.8195 3.504 13.9513 3.53698 14.0825C4.54541 18.1023 8.31119 20.9493 12.5923 20.6581C17.4008 20.331 21.035 16.1678 20.708 11.3581L20.7063 11.361ZM18.8063 11.4908C18.8468 12.0826 18.8093 12.6621 18.7034 13.2207C18.7034 13.2178 18.7005 13.2149 18.7005 13.2117C18.0668 11.6656 16.8151 10.5483 15.7156 9.93127C15.9382 7.31127 15.0493 6.20595 14.0426 6.02672C13.6484 5.95266 13.2411 6.0445 12.9167 6.2806C12.5924 6.51668 12.3799 6.87609 12.3292 7.27402C12.2797 7.6576 12.3848 8.04513 12.6213 8.35112C12.8579 8.65711 13.2065 8.85642 13.5902 8.90509C13.6603 8.91411 13.729 8.91702 13.7962 8.91557C13.8011 9.00908 13.8036 9.10269 13.8038 9.19633C12.873 8.96648 12.0037 8.91993 11.2105 8.9918C10.9123 9.01136 10.6155 9.04876 10.3217 9.10381C10.4206 8.21932 10.7534 7.22456 11.3973 6.49864C12.0199 5.79512 12.9463 5.39332 13.9559 5.49632C14.1474 5.51581 14.3519 5.56353 14.5355 5.62491C14.5445 5.62783 14.5536 5.63074 14.5611 5.63219C16.9004 6.58535 18.6228 8.80646 18.8049 11.4908L18.8063 11.4908ZM12.7223 12.8233C12.7223 12.8233 12.7223 12.8248 12.7209 12.8262C12.5001 13.1433 12.2501 13.439 11.974 13.7093C11.5557 13.2675 11.2017 12.7692 10.9222 12.2289C10.9088 12.2004 10.894 12.1751 10.8803 12.1466L10.8803 12.1437C10.7165 11.7935 10.5855 11.4289 10.4889 11.0547C11.1086 10.9083 11.7168 10.8545 12.2981 10.8829L12.3906 10.8874L12.3935 10.8874C12.7581 10.9173 13.1375 10.9845 13.5302 11.0921C13.3479 11.7052 13.0761 12.2881 12.7238 12.8219L12.7223 12.8233ZM9.74063 5.51435L9.73626 5.52017C8.71299 6.8408 8.37228 8.48234 8.38742 9.74303C6.00628 10.8603 5.49537 12.1824 5.84189 13.1443C5.85062 13.1713 5.86139 13.1966 5.87186 13.2222C6.18273 13.9648 7.03647 14.3151 7.77933 14.0049C8.52193 13.694 8.87223 12.8403 8.56199 12.0974C8.53487 12.034 8.50347 11.9726 8.46801 11.9135C8.54279 11.864 8.62338 11.8152 8.71008 11.7643C8.97572 12.686 9.36879 13.4643 9.82733 14.1154C9.99317 14.3619 10.1724 14.5993 10.3679 14.828C9.55238 15.1849 8.52474 15.3941 7.57305 15.1998C6.65306 15.0118 5.84189 14.4113 5.42525 13.485C5.34543 13.3032 5.28535 13.1136 5.24603 12.919C5.22146 12.752 5.20302 12.5841 5.19075 12.4157C4.97835 9.28914 6.91753 6.50621 9.74063 5.51435ZM12.4622 18.7596C10.6056 18.8864 8.86981 18.2533 7.5582 17.1268C9.21343 17.3525 10.8058 16.8265 11.8905 16.1829C14.0488 17.6871 15.4499 17.4689 16.1101 16.6877C16.3715 16.383 16.4957 15.9839 16.4533 15.5847C16.4109 15.1855 16.2057 14.8213 15.886 14.5783C15.2455 14.09 14.3303 14.2138 13.8425 14.8548C13.8009 14.91 13.7633 14.9699 13.7304 15.0296C13.6513 14.9892 13.5675 14.9444 13.4825 14.8952C14.0907 14.2678 14.589 13.5426 14.9568 12.75C15.0885 12.4817 15.2042 12.2059 15.3033 11.924C16.0205 12.4529 16.7164 13.2371 17.0243 14.1585C17.3216 15.0488 17.2079 16.0525 16.6135 16.876C16.496 17.0357 16.3618 17.1824 16.2131 17.3135L16.2073 17.3194C15.1331 18.1654 13.8283 18.667 12.464 18.7581L12.4622 18.7596Z" fill="#000000" fill-rule="nonzero" opacity="1" stroke="none"/>
</svg>

<svg xmlns="http://www.w3.org/2000/svg" xml:space="preserve" width="24" height="24" viewBox="0 0 24 24" stroke-miterlimit="10"><path d="M20.706 11.361A8.727 8.727 0 0 0 5.44 6.195l-.004-.002-.028.04a8.7 8.7 0 0 0-2.041 6.988l.004.03q.034.22.076.436.04.199.09.396a8.728 8.728 0 0 0 17.171-2.724zm-1.9.13q.058.89-.103 1.73l-.002-.01c-.634-1.545-1.886-2.663-2.985-3.28.222-2.62-.667-3.725-1.673-3.904a1.456 1.456 0 1 0-.247 2.889q.008.14.008.28a7.8 7.8 0 0 0-2.594-.204q-.447.03-.888.112c.099-.885.431-1.88 1.075-2.605a2.99 2.99 0 0 1 2.559-1.003 2.8 2.8 0 0 1 .605.136 6.83 6.83 0 0 1 4.244 5.859zm-6.084 1.332-.001.003q-.33.477-.747.883a6.5 6.5 0 0 1-1.052-1.48q-.02-.042-.042-.082v-.003a6.3 6.3 0 0 1-.391-1.09 6.5 6.5 0 0 1 1.81-.171l.092.004h.002q.547.045 1.137.205a6.5 6.5 0 0 1-.806 1.73zM9.741 5.514l-.005.006C8.713 6.84 8.372 8.482 8.387 9.743c-2.38 1.117-2.892 2.44-2.545 3.401q.014.04.03.078a1.459 1.459 0 0 0 2.69-1.125 2 2 0 0 0-.094-.183 5 5 0 0 1 .242-.15c.266.922.659 1.7 1.117 2.351q.248.37.54.713c-.815.357-1.842.566-2.794.372a2.99 2.99 0 0 1-2.148-1.715 2.8 2.8 0 0 1-.179-.566 7 7 0 0 1-.055-.503c-.213-3.127 1.727-5.91 4.55-6.902m2.721 13.246a6.8 6.8 0 0 1-4.904-1.633c1.655.226 3.248-.3 4.333-.944 2.158 1.504 3.559 1.286 4.22.505a1.458 1.458 0 1 0-2.38-1.658 5 5 0 0 1-.248-.135 7.8 7.8 0 0 0 1.474-2.145q.197-.403.346-.826c.717.529 1.413 1.313 1.721 2.235a2.99 2.99 0 0 1-.41 2.717q-.177.24-.4.438l-.007.005a6.8 6.8 0 0 1-3.743 1.44z"/></svg>
